src/components/icon/icons/cancel-circle.svg

<svg width="16" height="16" viewBox="0 0 16 16" fill="none" xmlns="http://www.w3.org/2000/svg">
<g clip-path="url(#clip0_385_1062)">
<path d="M7.9998 0.450195C12.1695 0.450195 15.5495 3.83034 15.5496 8C15.5496 12.1698 12.1696 15.5498 7.9998 15.5498C3.83014 15.5497 0.449997 12.1697 0.449997 8C0.450102 3.8304 3.83021 0.450301 7.9998 0.450195ZM7.9998 1.5498C4.43772 1.54991 1.54971 4.43792 1.54961 8C1.54961 11.5622 4.43765 14.4501 7.9998 14.4502C11.562 14.4502 14.45 11.5622 14.45 8C14.4499 4.43785 11.562 1.5498 7.9998 1.5498ZM11.0555 5.72266L8.77715 8L11.0564 10.2783L10.6668 10.667L10.2781 11.0566L7.9998 8.77832L5.72246 11.0566L5.33379 10.667L4.94414 10.2783L7.22246 8L4.94511 5.72266L5.72246 4.94531L7.9998 7.22266L10.2781 4.94531L11.0555 5.72266Z" fill="white"/>
</g>
<defs>
<clipPath id="clip0_385_1062">
<rect width="16" height="16" fill="white"/>
</clipPath>
</defs>
</svg>

<svg width="16" height="16" viewBox="0 0 16 16" fill="none" xmlns="http://www.w3.org/2000/svg">
<path d="M8 .45a7.55 7.55 0 1 1 0 15.1A7.55 7.55 0 0 1 8 .45m0 1.1a6.45 6.45 0 1 0 0 12.9 6.45 6.45 0 0 0 0-12.9m3.056 4.173L8.777 8l2.28 2.278-.39.389-.389.39L8 8.778l-2.278 2.279-.388-.39-.39-.389L7.222 8 4.945 5.723l.777-.778L8 7.223l2.278-2.278z" fill="#fff"/>
</svg>
